sail-club/img/facebook.svg

<svg width="9" height="16" viewBox="0 0 9 16" fill="none" xmlns="http://www.w3.org/2000/svg">
<path d="M5.14286 6.22222H9L8.57143 8H5.14286V16H3.42857V8H0V6.22222H3.42857V4.55822C3.42857 2.97333 3.588 2.39822 3.88629 1.81867C4.17858 1.24605 4.63012 0.777786 5.18229 0.474667C5.74114 0.165333 6.29571 0 7.824 0C8.27143 0 8.664 0.0444445 9 0.133333V1.77778H7.824C6.68914 1.77778 6.34371 1.84711 5.99143 2.04267C5.73086 2.18667 5.53714 2.38756 5.39829 2.65778C5.20971 3.02311 5.14286 3.38133 5.14286 4.55822V6.22222Z" fill="#163152"/>
</svg>

<svg fill="none" xmlns="http://www.w3.org/2000/svg" width="9" height="16" viewBox="0 0 9 16"><path d="M5.14 6.22H9L8.57 8H5.14v8H3.43V8H0V6.22h3.43V4.56c0-1.59.16-2.16.46-2.74.29-.57.74-1.04 1.3-1.35C5.73.17 6.28 0 7.81 0c.45 0 .84.04 1.18.13v1.65H7.82c-1.13 0-1.48.07-1.83.26-.26.15-.45.35-.6.62-.18.36-.25.72-.25 1.9v1.66z" fill="#163152"/></svg>
